X:1
T:Cauld Naseby Air
C:Marcus Turner
O:New Zealand
N:6/8/2006
M:3/4
N:Written after a particularly cold gig near Naseby with RSB 
L:1/16
Q:1/4=60
R:Air
K:G
V:1
e d3c|:"G"B4 B3e d3B|"D"A4 A3c "G"B3A|"C"G3F E3D "D"EF3|[1 "G"G7 e d3c:|[2 "G"G6 A2 B2d2|
|:"C"e4 e3f e3d|"Bm"(B4d2)G2 B2d2|"C"e2f2 g2f2 "Am"e2d2|"Em"B4 "D"A3 e d3c|
"G"B4 B3e d3c|"Em"B2d2 "D"A3c "G"B3A|"C"G3F E3D "D"EF3|[1 "G"G6 A2 B2d2:|[2 "G"G7||
